X: 26233
T: Meelick Team, The
R: jig
M: 6/8
K: Edorian
|:A|B2 e dBA|BAG EDB,|DEG Eed|BAG ABd|
ege fBA|BAG EDB,|DEG Eef|1 BAG E2:|2 BAG e2||
|:d|e2 f gfe|beg fed|Beg beg|fed e2 f|
g2 f edB|AFD DFA|dcd fed|BAF E2:|

